X:1
T:The Birthday of a King
T:The Birthday of a King
T:William Harold Neidlinger
T:William Harold Neidlinger, 1890
T:Public Domain Courtesy of the Cyber Hymnal™
C:William Harold Neidlinger
Z:Public Domain
Z:Courtesy of the Cyber Hymnal™
%%score ( 1 2 ) ( 3 4 )
L:1/8
Q:1/4=90
M:4/4
K:G
V:1 treble 
V:2 treble 
V:3 bass 
V:4 bass 
V:1
 [B,D][B,D] | [CE]2 [CE]2 [DF] [DG]2 [CA] | [B,G]3 [B,D] [B,D]2 [B,E]2 | [A,C]3 [A,C] [A,D]2 A,2 | %4
w: 1.~In the|lit- tle vil- lage of|Beth- le- hem, There|lay a child one|
w: 2.~’Twas a|hum- ble birth- place, but|O how much God|gave to us that|
 [B,D]6 [B,D][B,D] | [B,E]3 [B,F] [EG]2 [DB][DB] | [E^c]3 [^CB] [DA]2 DD | A,2 [A,F]2 B,2 [^CE]2 | %8
w: day; And the|sky was bright with a|ho- ly light O’er the|place where Je- sus|
w: day, From the|man- ger bed what a|path has led, What a|per- fect, ho- ly|
 [A,D]6 ||"^Refrain" D>D | [Ec]2 [Ec]2- [Ec][Ec][DB][CA] | [DB]3 [B,G] [B,D]2 [DG]>[DA] | %12
w: lay.|Al- le-|lu- ia! * O how the|an- gels sang. Al- le-|
w: way.||||
 [GB]2 [GB]4 [E^c]>[Ec] | [Fd]6 [Fc][Fc] | [FB]3 [FA] [EG]2 [Ge][Ge] | %15
w: lu- ia! How it|rang! And the|sky was bright with a|
w: |||
 [Fd]3 [Dc] !fermata![DB]2 [EG]>[EA] | [GB]2 [GB]4 [FA]3 [EG] | [DG]6 |] %18
w: ho- ly light ’Twas the|birth- day of a|king.|
w: |||
V:2
 x2 | x8 | x8 | x6 A,2 | x8 | x8 | x8 | A,2 B,2 x4 | x6 || x2 | x8 | x8 | x8 | x8 | x8 | x8 | x10 | %17
 x6 |] %18
V:3
 [G,,G,][G,,G,] | [C,G,]2 [C,G,]2 [C,A,] [B,,G,]2 [A,,F,] | [G,,G,]3 [G,,G,] [G,,G,]2 [G,,G,]2 | %3
 [A,,E,]3 [A,,G,] [D,F,]2 [F,A,]2 | [G,,G,]6 [G,,G,][G,,G,] | [E,G,]3 [E,A,] [E,B,]2 [E,G,][E,G,] | %6
 [A,,G,]3 [A,,G,] [D,F,]2 [D,F,][D,F,] | [D,F,]2 [D,F,]2 [E,G,]2 [A,,G,]2 | [D,F,]6 || %9
 [D,F,]>[D,F,] | [A,,G,]2 [A,,G,]2 [D,F,][D,F,][D,F,][D,F,] | %11
 [G,,G,]3 [G,,G,] [G,,G,]2 [G,B,]>[F,B,] | [E,B,]2 [E,B,]4 [A,,A,]>[A,,A,] | [D,A,]6 [D,A,][D,A,] | %14
 [D,B,]3 [D,B,] [E,B,]2 [^C,B,][C,B,] | [D,A,]3 [F,A,] G,2 [C,C]>[A,,C] | %16
 [D,D]2 [D,D]4 [D,C]3 [D,C] | [G,B,]6 |] %18
V:4
 x2 | x8 | x8 | x8 | x8 | x8 | x8 | x8 | x6 || x2 | x8 | x8 | x8 | x8 | x8 | x4 G,2 x2 | x10 | %17
 x6 |] %18

